src/assets/img/photos/button-google-play.svg

<svg width="135" height="40" viewBox="0 0 135 40" fill="none" xmlns="http://www.w3.org/2000/svg">
<g clip-path="url(#clip0_204_2)">
<rect width="135" height="40" fill="black"/>
<path d="M47.4501 10.2401C47.4501 11.0801 47.2001 11.7501 46.7001 12.2401C46.1401 12.8301 45.4101 13.1301 44.5001 13.1301C43.5901 13.1301 42.8901 12.8301 42.2901 12.2301C41.6901 11.6301 41.3901 10.8801 41.3901 10.0001C41.3901 9.12011 41.6901 8.37011 42.2901 7.77011C42.8901 7.17011 43.6301 6.86011 44.5001 6.86011C44.9401 6.86011 45.3601 6.94011 45.7501 7.09011C46.1401 7.25011 46.4601 7.47011 46.7101 7.75011L46.1601 8.30011C45.9801 8.08011 45.7401 7.90011 45.4401 7.78011C45.1437 7.65114 44.8233 7.58639 44.5001 7.59011C43.8501 7.59011 43.2901 7.82011 42.8401 8.27011C42.3901 8.73011 42.1701 9.30011 42.1701 9.99011C42.1701 10.6801 42.3901 11.2501 42.8401 11.7101C43.2901 12.1601 43.8401 12.3901 44.5001 12.3901C45.1001 12.3901 45.5901 12.2201 45.9901 11.8901C46.3901 11.5601 46.6201 11.0901 46.6801 10.5101H44.5001V9.79011H47.4101C47.4401 9.95011 47.4501 10.1001 47.4501 10.2401ZM52.0601 7.00011V7.74011H49.3301V9.64011H51.7901V10.3601H49.3301V12.2601H52.0601V13.0001H48.5601V7.00011H52.0601ZM55.3101 7.74011V13.0001H54.5401V7.74011H52.8601V7.00011H56.9801V7.74011H55.3001H55.3101ZM60.7401 13.0001H59.9701V7.00011H60.7401V13.0001ZM64.1601 7.74011V13.0001H63.3901V7.74011H61.7101V7.00011H65.8301V7.74011H64.1501H64.1601ZM74.5201 10.0001C74.5201 10.8901 74.2201 11.6301 73.6301 12.2301C73.0301 12.8301 72.3001 13.1301 71.4301 13.1301C70.5601 13.1301 69.8301 12.8301 69.2301 12.2301C68.6401 11.6301 68.3401 10.8901 68.3401 10.0001C68.3401 9.11011 68.6401 8.37011 69.2301 7.77011C69.8201 7.17011 70.5501 6.86011 71.4301 6.86011C72.3101 6.86011 73.0301 7.16011 73.6301 7.77011C74.2201 8.37011 74.5201 9.11011 74.5201 9.99011V10.0001ZM69.1401 10.0001C69.1401 10.6901 69.3601 11.2701 69.7901 11.7201C70.2301 12.1701 70.7801 12.4001 71.4301 12.4001C72.0801 12.4001 72.6301 12.1701 73.0601 11.7201C73.5001 11.2701 73.7201 10.7001 73.7201 10.0001C73.7201 9.30011 73.5001 8.73011 73.0601 8.28011C72.6201 7.83011 72.0801 7.60011 71.4301 7.60011C70.7801 7.60011 70.2301 7.83011 69.7901 8.28011C69.3501 8.73011 69.1401 9.31011 69.1401 10.0001ZM76.3701 13.0001H75.6001V7.00011H76.5401L79.4601 11.6701H79.4901L79.4601 10.5101V7.00011H80.2301V13.0001H79.4301L76.3801 8.11011H76.3501L76.3801 9.27011V13.0101L76.3701 13.0001ZM68.1701 21.7501C65.8201 21.7501 63.9001 23.5401 63.9001 26.0001C63.9001 28.4601 65.8201 30.2501 68.1701 30.2501C70.5201 30.2501 72.4401 28.4501 72.4401 26.0001C72.4401 23.5501 70.5201 21.7501 68.1701 21.7501ZM68.1701 28.5801C66.8801 28.5801 65.7701 27.5201 65.7701 26.0001C65.7701 24.4801 66.8801 23.4201 68.1701 23.4201C69.4601 23.4201 70.5701 24.4701 70.5701 26.0001C70.5701 27.5301 69.4601 28.5801 68.1701 28.5801ZM58.8601 21.7501C56.5101 21.7501 54.5901 23.5401 54.5901 26.0001C54.5901 28.4601 56.5101 30.2501 58.8601 30.2501C61.2101 30.2501 63.1301 28.4501 63.1301 26.0001C63.1301 23.5501 61.2101 21.7501 58.8601 21.7501ZM58.8601 28.5801C57.5701 28.5801 56.4601 27.5201 56.4601 26.0001C56.4601 24.4801 57.5701 23.4201 58.8601 23.4201C60.1501 23.4201 61.2601 24.4701 61.2601 26.0001C61.2601 27.5301 60.1501 28.5801 58.8601 28.5801ZM47.7801 23.0501V24.8501H52.1001C51.9701 25.8601 51.6301 26.6101 51.1201 27.1201C50.4901 27.7501 49.5101 28.4401 47.7901 28.4401C45.1301 28.4401 43.0501 26.3001 43.0501 23.6401C43.0501 20.9801 45.1301 18.8401 47.7901 18.8401C49.2201 18.8401 50.2701 19.4001 51.0401 20.1301L52.3101 18.8601C51.2301 17.8301 49.8001 17.0401 47.7801 17.0401C44.1401 17.0401 41.0801 20.0001 41.0801 23.6501C41.0801 27.3001 44.1401 30.2601 47.7801 30.2601C49.7501 30.2601 51.2301 29.6201 52.3901 28.4101C53.5801 27.2201 53.9501 25.5401 53.9501 24.1901C53.9501 23.7701 53.9201 23.3801 53.8501 23.0601H47.7801V23.0501ZM93.0901 24.4501C92.7401 23.5001 91.6601 21.7401 89.4501 21.7401C87.2401 21.7401 85.4401 23.4601 85.4401 25.9901C85.4401 28.3701 87.2401 30.2401 89.6601 30.2401C91.6101 30.2401 92.7401 29.0501 93.2001 28.3601L91.7501 27.3901C91.2701 28.1001 90.6101 28.5701 89.6601 28.5701C88.7101 28.5701 88.0301 28.1401 87.6001 27.2801L93.2901 24.9301L93.1001 24.4501H93.0901ZM87.2901 25.8701C87.2401 24.2301 88.5601 23.3901 89.5101 23.3901C90.2501 23.3901 90.8801 23.7601 91.0901 24.2901L87.2901 25.8701ZM82.6701 29.9901H84.5401V17.4901H82.6701V29.9901ZM79.6101 22.6901H79.5501C79.1301 22.1901 78.3301 21.7401 77.3101 21.7401C75.1801 21.7401 73.2301 23.6101 73.2301 26.0101C73.2301 28.4101 75.1801 30.2501 77.3101 30.2501C78.3201 30.2501 79.1301 29.8001 79.5501 29.2801H79.6101V29.8901C79.6101 31.5201 78.7401 32.3901 77.3401 32.3901C76.2001 32.3901 75.4901 31.5701 75.2001 30.8801L73.5701 31.5601C74.0401 32.6901 75.2801 34.0701 77.3401 34.0701C79.5301 34.0701 81.3801 32.7801 81.3801 29.6401V22.0001H79.6101V22.6901ZM77.4701 28.5701C76.1801 28.5701 75.1001 27.4901 75.1001 26.0101C75.1001 24.5301 76.1801 23.4201 77.4701 23.4201C78.7601 23.4201 79.7401 24.5201 79.7401 26.0101C79.7401 27.5001 78.7401 28.5701 77.4701 28.5701ZM97.3801 17.4901V29.9901H99.2501V25.2501H101.86C103.93 25.2501 105.96 23.7501 105.96 21.3701C105.96 18.9901 103.93 17.4901 101.86 17.4901H97.3801ZM101.9 23.5201H99.2501V19.2301H101.9C103.3 19.2301 104.09 20.3901 104.09 21.3701C104.09 22.3501 103.3 23.5101 101.9 23.5101V23.5201ZM113.43 21.7201C112.08 21.7201 110.68 22.3201 110.1 23.6301L111.76 24.3201C112.11 23.6301 112.77 23.4001 113.46 23.4001C114.42 23.4001 115.41 23.9801 115.42 25.0101V25.1401C115.08 24.9501 114.36 24.6601 113.47 24.6601C111.68 24.6601 109.87 25.6401 109.87 27.4701C109.87 29.1401 111.33 30.2201 112.97 30.2201C114.22 30.2201 114.92 29.6601 115.35 29.0001H115.41V29.9601H117.21V25.1701C117.21 22.9501 115.55 21.7101 113.41 21.7101L113.43 21.7201ZM113.2 28.5701C112.59 28.5701 111.74 28.2601 111.74 27.5101C111.74 26.5501 112.8 26.1801 113.72 26.1801C114.54 26.1801 114.93 26.3601 115.42 26.6001C115.353 27.1432 115.091 27.6434 114.682 28.0076C114.274 28.3718 113.747 28.5753 113.2 28.5801V28.5701ZM123.78 21.9901L121.64 27.4101H121.58L119.36 21.9901H117.35L120.68 29.5701L118.78 33.7801H120.73L125.86 21.9901H123.78ZM106.97 29.9901H108.84V17.4901H106.97V29.9901Z" fill="white"/>
<path d="M20.7501 19.4199L10.1001 30.7199C10.2153 31.148 10.4279 31.5436 10.7213 31.876C11.0147 32.2083 11.3809 32.4683 11.7913 32.6358C12.2018 32.8033 12.6454 32.8736 13.0875 32.8414C13.5296 32.8091 13.9583 32.6752 14.3401 32.4499L14.3701 32.4299L26.3501 25.5199L20.7401 19.4099L20.7501 19.4199Z" fill="#EA4335"/>
<path d="M31.5198 17.5H31.5098L26.3398 14.49L20.5098 19.68L26.3598 25.53L31.5098 22.56C31.9659 22.3133 32.347 21.948 32.6128 21.5027C32.8786 21.0574 33.0192 20.5486 33.0198 20.03C33.0198 18.94 32.4198 17.99 31.5198 17.51V17.5Z" fill="#FBBC04"/>
<path d="M10.1 9.28003C10.04 9.52003 10 9.76003 10 10.02V29.98C10 30.24 10.03 30.48 10.1 30.72L21.11 19.71L10.1 9.28003Z" fill="#4285F4"/>
<path d="M20.8301 20.0001L26.3401 14.4901L14.3701 7.55008C13.9874 7.32128 13.557 7.18414 13.1126 7.14941C12.6681 7.11467 12.2216 7.18328 11.808 7.34986C11.3945 7.51644 11.0251 7.77648 10.7288 8.10961C10.4325 8.44274 10.2173 8.83993 10.1001 9.27009L20.8301 19.9901V20.0001Z" fill="#34A853"/>
</g>
<defs>
<clipPath id="clip0_204_2">
<rect width="135" height="40" fill="white"/>
</clipPath>
</defs>
</svg>

<svg width="135" height="40" viewBox="0 0 135 40" fill="none" xmlns="http://www.w3.org/2000/svg"><g clip-path="url(#clip0_204_2)"><path fill="#000" d="M0 0h135v40H0z"/><path d="M47.45 10.24c0 .84-.25 1.51-.75 2-.56.59-1.29.89-2.2.89-.91 0-1.61-.3-2.21-.9-.6-.6-.9-1.35-.9-2.23 0-.88.3-1.63.9-2.23.6-.6 1.34-.91 2.21-.91.44 0 .86.08 1.25.23.39.16.71.38.96.66l-.55.55c-.18-.22-.42-.4-.72-.52a2.29 2.29 0 00-.94-.19c-.65 0-1.21.23-1.66.68-.45.46-.67 1.03-.67 1.72s.22 1.26.67 1.72c.45.45 1 .68 1.66.68.6 0 1.09-.17 1.49-.5.4-.33.63-.8.69-1.38H44.5v-.72h2.91c.03.16.04.31.04.45zM52.06 7v.74h-2.73v1.9h2.46v.72h-2.46v1.9h2.73V13h-3.5V7h3.5zm3.25.74V13h-.77V7.74h-1.68V7h4.12v.74H55.3h.01zM60.74 13h-.77V7h.77v6zm3.42-5.26V13h-.77V7.74h-1.68V7h4.12v.74h-1.68.01zM74.52 10c0 .89-.3 1.63-.89 2.23-.6.6-1.33.9-2.2.9-.87 0-1.6-.3-2.2-.9-.59-.6-.89-1.34-.89-2.23 0-.89.3-1.63.89-2.23.59-.6 1.32-.91 2.2-.91.88 0 1.6.3 2.2.91.59.6.89 1.34.89 2.22V10zm-5.38 0c0 .69.22 1.27.65 1.72.44.45.99.68 1.64.68.65 0 1.2-.23 1.63-.68.44-.45.66-1.02.66-1.72s-.22-1.27-.66-1.72c-.44-.45-.98-.68-1.63-.68-.65 0-1.2.23-1.64.68-.44.45-.65 1.03-.65 1.72zm7.23 3h-.77V7h.94l2.92 4.67h.03l-.03-1.16V7h.77v6h-.8l-3.05-4.89h-.03l.03 1.16v3.74l-.01-.01zm-8.2 8.75c-2.35 0-4.27 1.79-4.27 4.25s1.92 4.25 4.27 4.25c2.35 0 4.27-1.8 4.27-4.25s-1.92-4.25-4.27-4.25zm0 6.83c-1.29 0-2.4-1.06-2.4-2.58s1.11-2.58 2.4-2.58c1.29 0 2.4 1.05 2.4 2.58s-1.11 2.58-2.4 2.58zm-9.31-6.83c-2.35 0-4.27 1.79-4.27 4.25s1.92 4.25 4.27 4.25c2.35 0 4.27-1.8 4.27-4.25s-1.92-4.25-4.27-4.25zm0 6.83c-1.29 0-2.4-1.06-2.4-2.58s1.11-2.58 2.4-2.58c1.29 0 2.4 1.05 2.4 2.58s-1.11 2.58-2.4 2.58zm-11.08-5.53v1.8h4.32c-.13 1.01-.47 1.76-.98 2.27-.63.63-1.61 1.32-3.33 1.32-2.66 0-4.74-2.14-4.74-4.8 0-2.66 2.08-4.8 4.74-4.8 1.43 0 2.48.56 3.25 1.29l1.27-1.27c-1.08-1.03-2.51-1.82-4.53-1.82-3.64 0-6.7 2.96-6.7 6.61 0 3.65 3.06 6.61 6.7 6.61 1.97 0 3.45-.64 4.61-1.85 1.19-1.19 1.56-2.87 1.56-4.22 0-.42-.03-.81-.1-1.13h-6.07v-.01zm45.31 1.4c-.35-.95-1.43-2.71-3.64-2.71s-4.01 1.72-4.01 4.25c0 2.38 1.8 4.25 4.22 4.25 1.95 0 3.08-1.19 3.54-1.88l-1.45-.97c-.48.71-1.14 1.18-2.09 1.18s-1.63-.43-2.06-1.29l5.69-2.35-.19-.48h-.01zm-5.8 1.42c-.05-1.64 1.27-2.48 2.22-2.48.74 0 1.37.37 1.58.9l-3.8 1.58zm-4.62 4.12h1.87v-12.5h-1.87v12.5zm-3.06-7.3h-.06c-.42-.5-1.22-.95-2.24-.95-2.13 0-4.08 1.87-4.08 4.27 0 2.4 1.95 4.24 4.08 4.24 1.01 0 1.82-.45 2.24-.97h.06v.61c0 1.63-.87 2.5-2.27 2.5-1.14 0-1.85-.82-2.14-1.51l-1.63.68c.47 1.13 1.71 2.51 3.77 2.51 2.19 0 4.04-1.29 4.04-4.43V22h-1.77v.69zm-2.14 5.88c-1.29 0-2.37-1.08-2.37-2.56s1.08-2.59 2.37-2.59 2.27 1.1 2.27 2.59c0 1.49-1 2.56-2.27 2.56zm19.91-11.08v12.5h1.87v-4.74h2.61c2.07 0 4.1-1.5 4.1-3.88s-2.03-3.88-4.1-3.88h-4.48zm4.52 6.03h-2.65v-4.29h2.65c1.4 0 2.19 1.16 2.19 2.14 0 .98-.79 2.14-2.19 2.14v.01zm11.53-1.8c-1.35 0-2.75.6-3.33 1.91l1.66.69c.35-.69 1.01-.92 1.7-.92.96 0 1.95.58 1.96 1.61v.13c-.34-.19-1.06-.48-1.95-.48-1.79 0-3.6.98-3.6 2.81 0 1.67 1.46 2.75 3.1 2.75 1.25 0 1.95-.56 2.38-1.22h.06v.96h1.8v-4.79c0-2.22-1.66-3.46-3.8-3.46l.02.01zm-.23 6.85c-.61 0-1.46-.31-1.46-1.06 0-.96 1.06-1.33 1.98-1.33.82 0 1.21.18 1.7.42a2.254 2.254 0 01-2.22 1.98v-.01zm10.58-6.58l-2.14 5.42h-.06l-2.22-5.42h-2.01l3.33 7.58-1.9 4.21h1.95l5.13-11.79h-2.08zm-16.81 8h1.87v-12.5h-1.87v12.5z" fill="#fff"/><path d="M20.75 19.42L10.1 30.72a2.876 2.876 0 004.24 1.73l.03-.02 11.98-6.91-5.61-6.11.01.01z" fill="#EA4335"/><path d="M31.52 17.5h-.01l-5.17-3.01-5.83 5.19 5.85 5.85 5.15-2.97a2.88 2.88 0 001.51-2.53c0-1.09-.6-2.04-1.5-2.52v-.01z" fill="#FBBC04"/><path d="M10.1 9.28c-.06.24-.1.48-.1.74v19.96c0 .26.03.5.1.74l11.01-11.01L10.1 9.28z" fill="#4285F4"/><path d="M20.83 20l5.51-5.51-11.97-6.94a2.89 2.89 0 00-4.27 1.72l10.73 10.72V20z" fill="#34A853"/></g><defs><clipPath id="clip0_204_2"><path fill="#fff" d="M0 0h135v40H0z"/></clipPath></defs></svg>
